app/dist/common/images/lazydays.svg

<svg height="18" viewBox="0 0 18 18" width="18" xmlns="http://www.w3.org/2000/svg"><path d="m0 0h18v18h-18z" fill="#f0f3fa"/><path d="m16 11.85a21.25 21.25 0 0 0 -14 0l.8 1.15c4.82-1.8 10.81-1.51 13.2-1.15z" fill="#ca9400"/><g fill="#9a1202"><path d="m4.33 6h-1.33v4h2v-1h-.67z"/><path d="m5.58 6.77c.15-.1.65-.29 1.46-.27 1 .02 1.54.48 1.57 1.3v2.2h-1.41v-.42a1 1 0 0 1 -.86.42c-.7 0-.99-.54-.99-1.06 0-.5.25-1 1.13-1.04.16 0 .54.03.77.12.02-.18-.06-.55-.58-.54-.52 0-.8.14-.86.21l-.24-.92zm1.68 1.73c.02.22-.01.67-.38.68-.37 0-.38-.4-.28-.54.08-.1.22-.25.66-.14z" fill-rule="evenodd"/><path d="m12 6.5h-3v1.06h1.19l-1.19 1.47v.97h3v-1h-1.28l1.28-1.56zm1.33 3.1-1.18-3.1h1.3l.5 1.68.45-1.68h1.27l-1.2 3.48c-.47 1.08-1.7.7-2.26.39l.38-.93c.46.28.68.22.74.16z"/></g></svg>

<!-- by TradingView --><svg width="18" height="18" viewBox="0 0 18 18" xmlns="http://www.w3.org/2000/svg"><path fill="#F0F3FA" d="M0 0h18v18H0z"/><path d="M16 11.85a21.25 21.25 0 0 0-14 0L2.8 13c4.82-1.8 10.81-1.51 13.2-1.15Z" fill="#CA9400"/><path d="M4.33 6H3v4h2V9h-.67V6Z" fill="#9A1202"/><path fill-rule="evenodd" d="M5.58 6.77c.15-.1.65-.29 1.46-.27 1 .02 1.54.48 1.57 1.3V10H7.2v-.42a1 1 0 0 1-.86.42c-.7 0-.99-.54-.99-1.06 0-.5.25-1 1.13-1.04.16 0 .54.03.77.12.02-.18-.06-.55-.58-.54-.52 0-.8.14-.86.21l-.24-.92ZM7.26 8.5c.02.22-.01.67-.38.68-.37 0-.38-.4-.28-.54.08-.1.22-.25.66-.14Z" fill="#9A1202"/><path d="M12 6.5H9v1.06h1.19L9 9.03V10h3V9h-1.28L12 7.44V6.5ZM13.33 9.6l-1.18-3.1h1.3l.5 1.68.45-1.68h1.27l-1.2 3.48c-.47 1.08-1.7.7-2.26.39l.38-.93c.46.28.68.22.74.16Z" fill="#9A1202"/></svg>
